src/public/img/statistics/network.svg

<svg width="48" height="48" viewBox="0 0 48 48" fill="none" xmlns="http://www.w3.org/2000/svg">
<path fill-rule="evenodd" clip-rule="evenodd" d="M16.6994 23.8199C16.1357 24.427 15.1866 24.4621 14.5795 23.8984L6.17952 16.0984C5.87387 15.8146 5.7002 15.4163 5.7002 14.9992C5.7002 14.5821 5.87387 14.1839 6.17952 13.9L14.5795 6.10003C15.1866 5.53633 16.1357 5.57148 16.6994 6.17855C17.2631 6.78562 17.2279 7.73471 16.6209 8.29842L11.0198 13.4994L32.4 13.4994C33.2284 13.4994 33.9 14.171 33.9 14.9994C33.9 15.8278 33.2284 16.4994 32.4 16.4994L11.0202 16.4994L16.6209 21.7C17.2279 22.2637 17.2631 23.2128 16.6994 23.8199ZM34.6209 25.3006C34.0138 24.7369 33.0647 24.7721 32.501 25.3791C31.9373 25.9862 31.9725 26.9353 32.5795 27.499L38.1802 32.6996H16.7999C15.9715 32.6996 15.2999 33.3712 15.2999 34.1996C15.2999 35.028 15.9715 35.6996 16.7999 35.6996H38.1806L32.5795 40.9006C31.9725 41.4643 31.9373 42.4134 32.501 43.0205C33.0647 43.6276 34.0138 43.6627 34.6209 43.099L43.0209 35.299C43.3265 35.0152 43.5002 34.6169 43.5002 34.1998C43.5002 33.7827 43.3265 33.3844 43.0209 33.1006L34.6209 25.3006Z" fill="url(#paint0_linear_3970_21276)"/>
<defs>
<linearGradient id="paint0_linear_3970_21276" x1="24.6002" y1="5.69922" x2="24.6002" y2="43.4998" gradientUnits="userSpaceOnUse">
<stop stop-color="#F65128"/>
<stop offset="1" stop-color="#F65128" stop-opacity="0.08"/>
</linearGradient>
</defs>
</svg>

<svg xmlns="http://www.w3.org/2000/svg" width="48" height="48" fill="none">
  <path fill="url(#a)" fill-rule="evenodd" d="M16.7 23.82a1.5 1.5 0 0 1-2.12.078l-8.4-7.8a1.5 1.5 0 0 1 0-2.198l8.4-7.8a1.5 1.5 0 0 1 2.04 2.198l-5.6 5.201H32.4a1.5 1.5 0 0 1 0 3H11.02l5.6 5.201a1.5 1.5 0 0 1 .08 2.12Zm17.92 1.48a1.5 1.5 0 0 0-2.04 2.199l5.6 5.2H16.8a1.5 1.5 0 0 0 0 3h21.38l-5.6 5.202a1.5 1.5 0 0 0 2.04 2.198l8.4-7.8a1.5 1.5 0 0 0 0-2.198l-8.4-7.8Z" clip-rule="evenodd"/>
  <defs>
    <linearGradient id="a" x1="24.6" x2="24.6" y1="5.699" y2="43.5" gradientUnits="userSpaceOnUse">
      <stop stop-color="#F65128"/>
      <stop offset="1" stop-color="#F65128" stop-opacity=".08"/>
    </linearGradient>
  </defs>
</svg>
